; Postprocessed by [ArcWelder](https://github.com/FormerLurker/ArcWelderLib)
; Copyright(C) 2021 - Brad Hochgesang
; Version: 1.2.0, Branch: HEAD, BuildDate: 2021-11-21T20:25:43Z
; resolution=0.05mm
; path_tolerance=5.0%
; max_radius=9999.00mm
; default_xyz_precision=3
; default_e_precision=5
; extrusion_rate_variance_percent=5.0%

; generated by AnycubicSlicer 1.2.2 on 2024-11-17 at 14:19:51 UTC

; 

; external perimeters extrusion width = 0.42mm
; perimeters extrusion width = 0.45mm
; infill extrusion width = 0.45mm
; solid infill extrusion width = 0.50mm
; top infill extrusion width = 0.42mm
; first layer extrusion width = 0.56mm

; external perimeters extrusion width = 0.42mm
; perimeters extrusion width = 0.45mm
; infill extrusion width = 0.45mm
; solid infill extrusion width = 0.50mm
; top infill extrusion width = 0.42mm
; first layer extrusion width = 0.56mm

;TYPE:Custom
G90 ; use absolute coordinates
M83 ; extruder relative mode
M104 S215 ; set extruder temp
M140 S60 ; set bed temp
M190 S60 ; wait for bed temp
M109 S215 ; wait for extruder temp
G28                                        ; move X/Y/Z to min endstops
G1 Z0.28                                   ; lift nozzle a bit 
G92 E0 
G1 Y3 F1800                                    ; zero the extruded length 
G1 X60  E25 F500                       ; Extrude 25mm of filament in a 5cm line. 
G92 E0                                     ; zero the extruded length again 
G1 E-2 F500                                ; Retract a little 
G1 X70 F4000                              ; Quickly wipe away from the filament line
M117
G21 ; set units to millimeters
G90 ; use absolute coordinates
M82 ; use absolute distances for extrusion
G92 E0
M107
;LAYER_CHANGE
;Z:0.28
;HEIGHT:0.28
; BEFORE_LAYER_CHANGE 0 @ 0.28mm
G1 E-2 F4800
G92 E0
G1 Z.28 F7200
; AFTER_LAYER_CHANGE 0 @ 0.28mm
G1 X87.09 Y53.718
G1 E2 F4800
;TYPE:External perimeter
;WIDTH:0.56
G1 F3000
G1 X87.223 Y53.589 E2.01078
G1 X87.413 Y53.543 E2.02216
G1 X137.11 Y53.546 E4.91427
G3 X137.441 Y53.917 I-0.019 J0.350 E4.94614
G1 X137.441 Y79.773 E6.45083
G3 X137.069 Y80.144 I-0.355 J0.016 E6.48487
G1 X87.406 Y80.144 E9.37501
G3 X87.041 Y79.772 I-0.007 J-0.358 E9.40869
G1 X87.041 Y53.915 E10.91344
G1 X87.066 Y53.773 E10.92183
G1 X87.276 Y53.72 F7200
G1 X87.541 Y54.043
;TYPE:Perimeter
G1 F3000
G1 X136.942 Y54.046 E13.79672
G1 X136.942 Y79.644 E15.28639
G1 X87.541 Y79.644 E18.16128
G1 X87.541 Y54.103 E19.64764
G1 X88.041 Y54.543 F7200
G1 F3000
G1 X136.442 Y54.546 E22.46433
G1 X136.442 Y79.144 E23.89581
G1 X88.041 Y79.144 E26.7125
G1 X88.041 Y54.603 E28.14066
G1 E26.74066 F4800
;WIPE_START
G1 F5760
G1 X88.799 Y54.602 E26.14066
;WIPE_END
G92 E0
G1 X135.228 Y54.746 F7200
G1 E2 F4800
;TYPE:Solid infill
;WIDTH:0.561298
G1 F3000
G1 X136.017 Y55.534 E2.06506
G1 X136.017 Y56.243 E2.10643
G1 X134.744 Y54.971 E2.21143
G1 X134.036 Y54.971 E2.25274
G1 X136.017 Y56.952 E2.4162
G1 X136.017 Y57.661 E2.45757
G1 X133.327 Y54.971 E2.67953
G1 X132.618 Y54.971 E2.7209
G1 X136.017 Y58.37 E3.00136
G1 X136.017 Y59.078 E3.04267
G1 X131.909 Y54.971 E3.3816
G1 X131.2 Y54.971 E3.42297
G1 X136.017 Y59.787 E3.8204
G1 X136.017 Y60.496 E3.86177
G1 X130.491 Y54.971 E4.3177
G1 X129.782 Y54.971 E4.35907
G1 X136.017 Y61.205 E4.8735
G1 X136.017 Y61.914 E4.91487
G1 X129.074 Y54.971 E5.48776
G1 X128.365 Y54.97 E5.52913
G1 X136.017 Y62.622 E6.16053
G1 X136.017 Y63.331 E6.2019
G1 X127.656 Y54.97 E6.8918
G1 X126.947 Y54.97 E6.93317
G1 X136.017 Y64.04 E7.68157
G1 X136.017 Y64.749 E7.72294
G1 X126.238 Y54.97 E8.52984
G1 X125.529 Y54.97 E8.57121
G1 X136.017 Y65.458 E9.43662
G1 X136.017 Y66.167 E9.47799
G1 X124.82 Y54.97 E10.4019
G1 X124.112 Y54.97 E10.44321
G1 X136.017 Y66.875 E11.42554
G1 X136.017 Y67.584 E11.46691
G1 X123.403 Y54.97 E12.50774
G1 X122.694 Y54.97 E12.54911
G1 X136.017 Y68.293 E13.64844
G1 X136.017 Y69.002 E13.68981
G1 X121.985 Y54.97 E14.84764
G1 X121.276 Y54.97 E14.88901
G1 X136.017 Y69.711 E16.10535
G1 X136.017 Y70.419 E16.14666
G1 X120.567 Y54.97 E17.42146
G1 X119.858 Y54.97 E17.46283
G1 X136.017 Y71.128 E18.79613
G1 X136.017 Y71.837 E18.8375
G1 X119.149 Y54.97 E20.2293
G1 X118.441 Y54.97 E20.27061
G1 X136.017 Y72.546 E21.72087
G1 X136.017 Y73.255 E21.76224
G1 X117.732 Y54.97 E23.27101
G1 X117.023 Y54.97 E23.31238
G1 X136.017 Y73.964 E24.87965
G1 X136.017 Y74.672 E24.92096
G1 X116.314 Y54.97 E26.54669
G1 X115.605 Y54.97 E26.58806
G1 X136.017 Y75.381 E28.27229
G1 X136.017 Y76.09 E28.31366
G1 X114.896 Y54.97 E30.05639
G1 X114.187 Y54.97 E30.09776
G1 X136.017 Y76.799 E31.899
G1 X136.017 Y77.508 E31.94037
G1 X113.479 Y54.97 E33.80007
G1 X112.77 Y54.97 E33.84144
G1 X136.017 Y78.216 E35.7596
G1 X136.017 Y78.719 E35.78895
G1 X135.811 Y78.719 E35.80097
G1 X112.061 Y54.97 E37.76063
G1 X111.352 Y54.969 E37.802
G1 X135.102 Y78.719 E39.7617
G1 X134.393 Y78.719 E39.80307
G1 X110.643 Y54.969 E41.76277
G1 X109.934 Y54.969 E41.80414
G1 X133.684 Y78.719 E43.76384
G1 X132.975 Y78.719 E43.80521
G1 X109.225 Y54.969 E45.76491
G1 X108.517 Y54.969 E45.80622
G1 X132.267 Y78.719 E47.76592
G1 X131.558 Y78.719 E47.80729
G1 X107.808 Y54.969 E49.76699
G1 X107.099 Y54.969 E49.80836
G1 X130.849 Y78.719 E51.76806
G1 X130.14 Y78.719 E51.80943
G1 X106.39 Y54.969 E53.76913
G1 X105.681 Y54.969 E53.8105
G1 X129.431 Y78.719 E55.7702
G1 X128.723 Y78.719 E55.81151
G1 X104.972 Y54.969 E57.77125
G1 X104.263 Y54.969 E57.81262
G1 X128.014 Y78.719 E59.77236
G1 X127.305 Y78.719 E59.81373
G1 X103.555 Y54.969 E61.77343
G1 X102.846 Y54.969 E61.8148
G1 X126.596 Y78.719 E63.7745
G1 X125.887 Y78.719 E63.81587
G1 X102.137 Y54.969 E65.77557
G1 X101.428 Y54.969 E65.81694
G1 X125.178 Y78.719 E67.77664
G1 X124.47 Y78.719 E67.81795
G1 X100.719 Y54.969 E69.77769
G1 X100.01 Y54.969 E69.81906
G1 X123.761 Y78.719 E71.7788
G1 X123.052 Y78.719 E71.82017
G1 X99.301 Y54.969 E73.77991
G1 X98.593 Y54.969 E73.82122
G1 X122.343 Y78.719 E75.78092
G1 X121.634 Y78.719 E75.82229
G1 X97.884 Y54.969 E77.78199
G1 X97.175 Y54.969 E77.82336
G1 X120.926 Y78.719 E79.7831
G1 X120.217 Y78.719 E79.82447
G1 X96.466 Y54.969 E81.78421
G1 X95.757 Y54.969 E81.82558
G1 X119.508 Y78.719 E83.78532
G1 X118.799 Y78.719 E83.82669
G1 X95.048 Y54.969 E85.78643
G1 X94.339 Y54.969 E85.8278
G1 X118.09 Y78.719 E87.78754
G1 X117.381 Y78.719 E87.82891
G1 X93.631 Y54.968 E89.78865
G1 X92.922 Y54.968 E89.83002
G1 X116.673 Y78.719 E91.78981
G1 X115.964 Y78.719 E91.83118
G1 X92.213 Y54.968 E93.79097
G1 X91.504 Y54.968 E93.83234
G1 X115.255 Y78.719 E95.79213
G1 X114.546 Y78.719 E95.8335
G1 X90.795 Y54.968 E97.79329
G1 X90.086 Y54.968 E97.83466
G1 X113.837 Y78.719 E99.79445
G1 X113.129 Y78.719 E99.83576
G1 X89.377 Y54.968 E101.79559
G1 X88.669 Y54.968 E101.8369
G1 X112.42 Y78.719 E103.79669
G1 X111.711 Y78.719 E103.83806
G1 X88.465 Y55.474 E105.75614
G1 X88.465 Y56.183 E105.79751
G1 X111.002 Y78.719 E107.65708
G1 X110.293 Y78.719 E107.69845
G1 X88.465 Y56.892 E109.49952
G1 X88.465 Y57.6 E109.54083
G1 X109.584 Y78.719 E111.28344
G1 X108.876 Y78.719 E111.32475
G1 X88.465 Y58.309 E113.0089
G1 X88.465 Y59.018 E113.05027
G1 X108.167 Y78.719 E114.67592
G1 X107.458 Y78.719 E114.71729
G1 X88.465 Y59.727 E116.28443
G1 X88.465 Y60.436 E116.3258
G1 X106.749 Y78.719 E117.83444
G1 X106.04 Y78.719 E117.87581
G1 X88.465 Y61.144 E119.32599
G1 X88.465 Y61.853 E119.36736
G1 X105.332 Y78.719 E120.75908
G1 X104.623 Y78.719 E120.80045
G1 X88.465 Y62.562 E122.13367
G1 X88.465 Y63.271 E122.17504
G1 X103.914 Y78.719 E123.44975
G1 X103.205 Y78.719 E123.49112
G1 X88.465 Y63.98 E124.70733
G1 X88.465 Y64.689 E124.7487
G1 X102.496 Y78.719 E125.90641
G1 X101.787 Y78.719 E125.94778
G1 X88.465 Y65.397 E127.04703
G1 X88.465 Y66.106 E127.0884
G1 X101.079 Y78.719 E128.12919
G1 X100.37 Y78.719 E128.17056
G1 X88.465 Y66.815 E129.15285
G1 X88.465 Y67.524 E129.19422
G1 X99.661 Y78.719 E130.118
G1 X98.952 Y78.719 E130.15937
G1 X88.465 Y68.233 E131.02465
G1 X88.465 Y68.941 E131.06596
G1 X98.243 Y78.719 E131.87278
G1 X97.535 Y78.719 E131.91409
G1 X88.465 Y69.65 E132.66245
G1 X88.465 Y70.359 E132.70382
G1 X96.826 Y78.719 E133.39368
G1 X96.117 Y78.719 E133.43505
G1 X88.465 Y71.068 E134.0664
G1 X88.465 Y71.777 E134.10777
G1 X95.408 Y78.719 E134.68062
G1 X94.699 Y78.719 E134.72199
G1 X88.465 Y72.486 E135.23634
G1 X88.465 Y73.194 E135.27765
G1 X93.99 Y78.719 E135.73354
G1 X93.282 Y78.719 E135.77485
G1 X88.465 Y73.903 E136.17228
G1 X88.465 Y74.612 E136.21365
G1 X92.573 Y78.719 E136.55258
G1 X91.864 Y78.719 E136.59395
G1 X88.465 Y75.321 E136.87437
G1 X88.465 Y76.03 E136.91574
G1 X91.155 Y78.719 E137.13766
G1 X90.446 Y78.719 E137.17903
G1 X88.465 Y76.738 E137.34249
G1 X88.465 Y77.447 E137.38386
G1 X89.738 Y78.719 E137.48886
G1 X89.029 Y78.719 E137.53023
G1 X88.241 Y77.931 E137.59525
G1 E136.19525 F4800
;WIPE_START
G1 F5760
G1 X88.777 Y78.467 E135.59525
;WIPE_END
G92 E0
G1 X84.85 Y96.876 F7200
G1 E2 F4800
;TYPE:External perimeter
;WIDTH:0.56
G1 F3000
G3 X85.165 Y96.700 I0.311 J0.186 E2.02187
G1 X134.869 Y96.703 E4.91439
G3 X135.200 Y97.072 I-0.019 J0.350 E4.94614
G1 X135.2 Y122.929 E6.45089
G3 X134.828 Y123.300 I-0.354 J0.017 E6.48485
G1 X85.171 Y123.3 E9.37464
G3 X84.800 Y122.934 I-0.013 J-0.358 E9.40841
G1 X84.8 Y97.065 E10.91385
G1 X84.828 Y96.932 E10.92176
G1 X85.023 Y96.875 F7200
G1 X85.3 Y97.2
;TYPE:Perimeter
G1 F3000
G1 X134.7 Y97.202 E13.79659
G1 X134.7 Y122.8 E15.28626
G1 X85.3 Y122.8 E18.16109
G1 X85.3 Y97.26 E19.64739
G1 X85.799 Y97.7 F7200
G1 F3000
G1 X134.201 Y97.702 E22.46414
G1 X134.201 Y122.301 E23.89568
G1 X85.799 Y122.301 E26.71243
G1 X85.799 Y97.76 E28.14059
G1 E26.74059 F4800
;WIPE_START
G1 F5760
G1 X86.557 Y97.759 E26.14059
;WIPE_END
G92 E0
G1 X132.987 Y97.902 F7200
G1 E2 F4800
;TYPE:Solid infill
;WIDTH:0.561298
G1 F3000
G1 X133.776 Y98.691 E2.0651
G1 X133.776 Y99.399 E2.10641
G1 X132.503 Y98.127 E2.21141
G1 X131.794 Y98.127 E2.25278
G1 X133.776 Y100.108 E2.41628
G1 X133.776 Y100.817 E2.45765
G1 X131.086 Y98.127 E2.67961
G1 X130.377 Y98.127 E2.72098
G1 X133.776 Y101.526 E3.00144
G1 X133.776 Y102.235 E3.04281
G1 X129.668 Y98.127 E3.38178
G1 X128.959 Y98.127 E3.42315
G1 X133.776 Y102.943 E3.82058
G1 X133.776 Y103.652 E3.86195
G1 X128.25 Y98.127 E4.31788
G1 X127.541 Y98.127 E4.35925
G1 X133.776 Y104.361 E4.87368
G1 X133.776 Y105.07 E4.91505
G1 X126.832 Y98.127 E5.48798
G1 X126.124 Y98.127 E5.52929
G1 X133.776 Y105.779 E6.16069
G1 X133.776 Y106.488 E6.20206
G1 X125.415 Y98.127 E6.89196
G1 X124.706 Y98.127 E6.93333
G1 X133.776 Y107.196 E7.68169
G1 X133.776 Y107.905 E7.72306
G1 X123.997 Y98.127 E8.52992
G1 X123.288 Y98.127 E8.57129
G1 X133.776 Y108.614 E9.43665
G1 X133.776 Y109.323 E9.47802
G1 X122.579 Y98.127 E10.40189
G1 X121.87 Y98.127 E10.44326
G1 X133.776 Y110.032 E11.42563
G1 X133.776 Y110.74 E11.46694
G1 X121.162 Y98.126 E12.50777
G1 X120.453 Y98.126 E12.54914
G1 X133.776 Y111.449 E13.64847
G1 X133.776 Y112.158 E13.68984
G1 X119.744 Y98.126 E14.84767
G1 X119.035 Y98.126 E14.88904
G1 X133.776 Y112.867 E16.10538
G1 X133.776 Y113.576 E16.14675
G1 X118.326 Y98.126 E17.42159
G1 X117.617 Y98.126 E17.46296
G1 X133.776 Y114.285 E18.7963
G1 X133.776 Y114.993 E18.83761
G1 X116.908 Y98.126 E20.22941
G1 X116.2 Y98.126 E20.27072
G1 X133.776 Y115.702 E21.72098
G1 X133.776 Y116.411 E21.76235
G1 X115.491 Y98.126 E23.27112
G1 X114.782 Y98.126 E23.31249
G1 X133.776 Y117.12 E24.87976
G1 X133.776 Y117.829 E24.92113
G1 X114.073 Y98.126 E26.5469
G1 X113.364 Y98.126 E26.58827
G1 X133.776 Y118.537 E28.2725
G1 X133.776 Y119.246 E28.31387
G1 X112.655 Y98.126 E30.0566
G1 X111.946 Y98.126 E30.09797
G1 X133.776 Y119.955 E31.89921
G1 X133.776 Y120.664 E31.94058
G1 X111.238 Y98.126 E33.80028
G1 X110.529 Y98.126 E33.84165
G1 X133.776 Y121.373 E35.75985
G1 X133.776 Y121.876 E35.7892
G1 X133.57 Y121.876 E35.80122
G1 X109.82 Y98.126 E37.76092
G1 X109.111 Y98.126 E37.80229
G1 X132.861 Y121.876 E39.76199
G1 X132.152 Y121.876 E39.80336
G1 X108.402 Y98.126 E41.76306
G1 X107.693 Y98.126 E41.80443
G1 X131.443 Y121.876 E43.76413
G1 X130.734 Y121.876 E43.8055
G1 X106.984 Y98.126 E45.7652
G1 X106.276 Y98.126 E45.80651
G1 X130.026 Y121.876 E47.76621
G1 X129.317 Y121.876 E47.80758
G1 X105.567 Y98.126 E49.76728
G1 X104.858 Y98.126 E49.80865
G1 X128.608 Y121.876 E51.76835
G1 X127.899 Y121.876 E51.80972
G1 X104.149 Y98.125 E53.76946
G1 X103.44 Y98.125 E53.81083
G1 X127.19 Y121.876 E55.77057
G1 X126.481 Y121.876 E55.81194
G1 X102.731 Y98.125 E57.77168
G1 X102.022 Y98.125 E57.81305
G1 X125.773 Y121.876 E59.77284
G1 X125.064 Y121.876 E59.81421
G1 X101.314 Y98.125 E61.77395
G1 X100.605 Y98.125 E61.81532
G1 X124.355 Y121.876 E63.77506
G1 X123.646 Y121.876 E63.81643
G1 X99.896 Y98.125 E65.77617
G1 X99.187 Y98.125 E65.81754
G1 X122.937 Y121.876 E67.77728
G1 X122.229 Y121.876 E67.81859
G1 X98.478 Y98.125 E69.77838
G1 X97.769 Y98.125 E69.81975
G1 X121.52 Y121.876 E71.77954
G1 X120.811 Y121.876 E71.82091
G1 X97.06 Y98.125 E73.7807
G1 X96.352 Y98.125 E73.82201
G1 X120.102 Y121.876 E75.78175
G1 X119.393 Y121.876 E75.82312
G1 X95.643 Y98.125 E77.78286
G1 X94.934 Y98.125 E77.82423
G1 X118.684 Y121.876 E79.78397
G1 X117.976 Y121.876 E79.82528
G1 X94.225 Y98.125 E81.78507
G1 X93.516 Y98.125 E81.82644
G1 X117.267 Y121.876 E83.78623
G1 X116.558 Y121.876 E83.8276
G1 X92.807 Y98.125 E85.78739
G1 X92.098 Y98.125 E85.82876
G1 X115.849 Y121.876 E87.78855
G1 X115.14 Y121.876 E87.82992
G1 X91.39 Y98.125 E89.78966
G1 X90.681 Y98.125 E89.83103
G1 X114.432 Y121.876 E91.79082
G1 X113.723 Y121.876 E91.83219
G1 X89.972 Y98.125 E93.79198
G1 X89.263 Y98.125 E93.83335
G1 X113.014 Y121.876 E95.79314
G1 X112.305 Y121.876 E95.83451
G1 X88.554 Y98.125 E97.7943
G1 X87.845 Y98.125 E97.83567
G1 X111.596 Y121.876 E99.79546
G1 X110.887 Y121.876 E99.83683
G1 X87.136 Y98.125 E101.79662
G1 X86.427 Y98.124 E101.83799
G1 X110.179 Y121.876 E103.79786
G1 X109.47 Y121.876 E103.83923
G1 X86.224 Y98.63 E105.75735
G1 X86.224 Y99.339 E105.79872
G1 X108.761 Y121.876 E107.65833
G1 X108.052 Y121.876 E107.6997
G1 X86.224 Y100.048 E109.50081
G1 X86.224 Y100.757 E109.54218
G1 X107.343 Y121.876 E111.28479
G1 X106.635 Y121.876 E111.3261
G1 X86.224 Y101.465 E113.01029
G1 X86.224 Y102.174 E113.05166
G1 X105.926 Y121.876 E114.67735
G1 X105.217 Y121.876 E114.71872
G1 X86.224 Y102.883 E116.28591
G1 X86.224 Y103.592 E116.32728
G1 X104.508 Y121.876 E117.83596
G1 X103.799 Y121.876 E117.87733
G1 X86.224 Y104.301 E119.32751
G1 X86.224 Y105.01 E119.36888
G1 X103.09 Y121.876 E120.76056
G1 X102.382 Y121.876 E120.80187
G1 X86.224 Y105.718 E122.13513
G1 X86.224 Y106.427 E122.1765
G1 X101.673 Y121.876 E123.45126
G1 X100.964 Y121.876 E123.49263
G1 X86.224 Y107.136 E124.70888
G1 X86.224 Y107.845 E124.75025
G1 X100.255 Y121.876 E125.908
G1 X99.546 Y121.876 E125.94937
G1 X86.224 Y108.554 E127.04862
G1 X86.224 Y109.262 E127.08993
G1 X98.838 Y121.876 E128.13076
G1 X98.129 Y121.876 E128.17213
G1 X86.224 Y109.971 E129.15446
G1 X86.224 Y110.68 E129.19583
G1 X97.42 Y121.876 E130.11965
G1 X96.711 Y121.876 E130.16102
G1 X86.224 Y111.389 E131.02634
G1 X86.224 Y112.098 E131.06771
G1 X96.002 Y121.876 E131.87453
G1 X95.293 Y121.876 E131.9159
G1 X86.224 Y112.807 E132.66422
G1 X86.224 Y113.515 E132.70553
G1 X94.585 Y121.876 E133.39543
G1 X93.876 Y121.876 E133.4368
G1 X86.224 Y114.224 E134.0682
G1 X86.224 Y114.933 E134.10957
G1 X93.167 Y121.876 E134.68246
G1 X92.458 Y121.876 E134.72383
G1 X86.224 Y115.642 E135.23822
G1 X86.224 Y116.351 E135.27959
G1 X91.749 Y121.876 E135.73548
G1 X91.041 Y121.876 E135.77679
G1 X86.224 Y117.059 E136.17426
G1 X86.224 Y117.768 E136.21563
G1 X90.332 Y121.876 E136.5546
G1 X89.623 Y121.876 E136.59597
G1 X86.224 Y118.477 E136.87643
G1 X86.224 Y119.186 E136.9178
G1 X88.914 Y121.876 E137.13976
G1 X88.205 Y121.876 E137.18113
G1 X86.224 Y119.895 E137.34459
G1 X86.224 Y120.604 E137.38596
G1 X87.496 Y121.876 E137.49092
G1 X86.788 Y121.876 E137.53223
G1 X85.999 Y121.087 E137.59733
;LAYER_CHANGE
;Z:0.48
;HEIGHT:0.2
; BEFORE_LAYER_CHANGE 1 @ 0.48mm
G1 E136.19733 F4800
;WIPE_START
G1 F5760
G1 X86.535 Y121.623 E135.59733
;WIPE_END
G92 E0
G1 Z.48 F7200
; AFTER_LAYER_CHANGE 1 @ 0.48mm
M104 S195 ; set temperature
G1 X86.714 Y53.498
G1 E2 F4800
;TYPE:External perimeter
;WIDTH:0.42
G1 F4500
